svgs/thin/salad.svg

<svg xmlns="http://www.w3.org/2000/svg" viewBox="0 0 512 512"><!--! Font Awesome Pro 6.3.0 by @fontawesome - https://fontawesome.com License - https://fontawesome.com/license (Commercial License) Copyright 2023 Fonticons, Inc. --><path d="M304 224c0 11.88 1.1 23.53 5.938 34.66c1.469 4.156 6 6.281 10.19 4.875c4.188-1.469 6.344-6.031 4.875-10.19C321.7 243.9 320 234.1 320 224c0-48.53 39.47-88 88-88S496 175.5 496 224c0 10.06-1.688 19.91-5 29.34c-1.469 4.156 .6875 8.719 4.875 10.19C496.8 263.8 497.7 264 498.5 264c3.281 0 6.375-2.062 7.531-5.344C509.1 247.5 512 235.9 512 224c0-57.34-46.66-104-104-104S304 166.7 304 224zM216 96v160c0 4.406 3.594 8 8 8S232 260.4 232 256V96c0-4.406-3.594-8-8-8S216 91.59 216 96zM60.66 262.6C61.75 263.1 62.88 263.3 64 263.3c3.031 0 5.906-1.719 7.281-4.656C73.13 254.6 71.34 249.8 67.34 248C36.16 233.7 16 202.3 16 168c0-48.53 39.5-88 87.91-88c7.875 .125 15.62 1.281 23 3.438l6.812 1.969l2.781-6.5C152.9 40.69 190.4 16 232.1 16s79.19 24.69 95.56 62.91l2.781 6.5l6.812-1.969C344.6 81.28 352.4 80.13 360.1 80c18.44 0 36.13 5.781 51.16 16.75c3.594 2.594 8.594 1.875 11.19-1.75c2.594-3.562 1.812-8.594-1.75-11.19C402.9 70.84 381.1 64 360 64c-6.969 .0938-13.84 .9062-20.53 2.375C319.3 25.81 277.9 0 232.1 0C186.3 0 144.9 25.81 124.7 66.38C117.1 64.91 111.1 64.09 104 64C46.66 64 0 110.7 0 168C0 208.5 23.81 245.6 60.66 262.6zM90.34 154.3c-3.125 3.125-3.125 8.188 0 11.31l96 96C187.9 263.2 189.9 264 192 264s4.094-.7813 5.656-2.344c3.125-3.125 3.125-8.188 0-11.31l-96-96C98.53 151.2 93.47 151.2 90.34 154.3zM495.8 288H16.19C7.055 288-.6992 295.8 .0508 304.9c6.758 76.38 58.28 139.4 128.1 163.9V480c0 17.62 14.45 32 32.09 32h192.2c17.65 0 32.04-14.38 32.04-32v-11.5c69.46-24.62 120.8-87.5 127.4-163.6C512.7 295.8 505.1 288 495.8 288zM379.2 453.4l-10.65 3.775V480c0 8.822-7.195 16-16.04 16H160.3c-8.846 0-16.04-7.178-16.04-16v-22.59l-10.7-3.754C68.16 430.7 22.03 371.8 16.2 304h479.6l.2051-.5137C490.1 371.5 444.2 430.4 379.2 453.4z"/></svg>

<svg xmlns="http://www.w3.org/2000/svg" viewBox="0 0 512 512"><!-- Font Awesome Pro 6.0.0-alpha2 by @fontawesome - https://fontawesome.com License - https://fontawesome.com/license (Commercial License) --><path d="M304 224C304 235.875 306 247.531 309.938 258.656C311.406 262.812 315.938 264.938 320.125 263.531C324.313 262.063 326.469 257.5 325 253.344C321.688 243.906 320 234.062 320 224C320 175.469 359.469 136 408 136S496 175.469 496 224C496 234.062 494.312 243.906 491 253.344C489.531 257.5 491.688 262.062 495.875 263.531C496.75 263.844 497.656 264 498.531 264C501.813 264 504.906 261.938 506.063 258.656C510 247.531 512 235.875 512 224C512 166.656 465.344 120 408 120S304 166.656 304 224ZM216 96V256C216 260.406 219.594 264 224 264S232 260.406 232 256V96C232 91.594 228.406 88 224 88S216 91.594 216 96ZM60.656 262.562C61.75 263.062 62.875 263.281 64 263.281C67.031 263.281 69.906 261.563 71.281 258.625C73.125 254.594 71.344 249.844 67.344 248C36.156 233.688 16 202.25 16 168C16 119.469 55.5 80 103.906 80C111.781 80.125 119.531 81.281 126.906 83.438L133.719 85.406L136.5 78.906C152.906 40.688 190.438 16 232.094 16S311.281 40.688 327.656 78.906L330.438 85.406L337.25 83.438C344.625 81.281 352.375 80.125 360.125 80C378.562 80 396.25 85.781 411.281 96.75C414.875 99.344 419.875 98.625 422.469 95C425.062 91.438 424.281 86.406 420.719 83.812C402.938 70.844 381.969 64 360 64C353.031 64.094 346.156 64.906 339.469 66.375C319.281 25.812 277.875 0 232.094 0C186.344 0 144.906 25.812 124.688 66.375C118 64.906 111.094 64.094 104.031 64C46.656 64 0 110.656 0 168C0 208.5 23.812 245.594 60.656 262.562ZM90.344 154.344C87.219 157.469 87.219 162.531 90.344 165.656L186.344 261.656C187.906 263.219 189.938 264 192 264S196.094 263.219 197.656 261.656C200.781 258.531 200.781 253.469 197.656 250.344L101.656 154.344C98.531 151.219 93.469 151.219 90.344 154.344ZM495.805 288H16.195C7.061 288 -0.699 295.75 0.051 304.875C6.809 381.25 58.375 444.25 128.213 468.75V480C128.213 497.625 142.607 512 160.254 512H352.498C370.145 512 384.537 497.625 384.537 480V468.5C454.002 443.875 505.316 381 511.949 304.875C512.701 295.75 505.066 288 495.805 288ZM379.191 453.42L368.537 457.195V480C368.537 488.822 361.342 496 352.498 496H160.254C151.408 496 144.213 488.822 144.213 480V457.406L133.51 453.652C68.162 430.727 22.033 371.775 16.195 304H495.805L496.01 303.486C490.082 371.512 444.229 430.363 379.191 453.42Z"/></svg>
